X:0799
T:Miss Duff of Muirton's Reel.
M:C
L:1/8
Q:1/2=104
I: :: :|
Z:Jack Campin * www.campin.me.uk * 2009
K:G
c|BGGA FGAc|BGGA gdcB|caBg AGFD|EcAF G2G:|
d|gdgb fgaf|gabg afdf|gdbd fdad|fgaf g2g2|
  dgbd cfac|BdgB DAcA|GBgB cAec|EcAF G2G|]

